X: 10
T:Banks of Lough Gowna, The
M:6/8
R:jig
K:Bm
BcB BAF|FEF DFA|BcB BAF|d2e fed|BcB BAF|FEF DFA|def geg|1 fdB Bdc:|2 fdB ~B3||
|:def ~a3|afb afe|~f3 def|geg fdB|def ~a3|afb afe|def geg|1 fdB ~B3:|2 fdB Bdc||

